ALTDEU
CUT[Brautwerbung]
REG[Europa, Mitteleuropa, Deutschland]
TRD[]
FKT[]
SIG[A0233]
KEY[A0233   04  C 4/4]
MEL[+1  +1765  +1+15
    5  6655  665_
    4454  321
    +1  +1+155  665
    5  +1+155  665_
    4454  321
    +1  +1+17_  665_
    6655  4454  321_
    +1765  +1_5
    5  6655  6655
    6622  3_. //]
BEM[]
MEL_SEM[0 -1 -2 -2 5 0 -5 0 2 0 -2 0 2 0 -2 -2 0 2 -2 -1 -2 -2 12 0 0 -5 0 2 0 -2 0 5 0 -5 0 2 0 -2 -2 0 2 -2 -1 -2 -2 12 0 0 -1 -2 0 -2 2 0 -2 0 -2 0 2 -2 -1 -2 -2 12 -1 -2 -2 5 -5 0 2 0 -2 0 2 0 -2 0 2 0 -7 0 2]
MEL_RAW[+1  +1765  +1+15
    5  6655  665
    4454  321
    +1  +1+155  665
    5  +1+155  665
    4454  321
    +1  +1+17  665
    6655  4454  321
    +1765  +15
    5  6655  6655
    6622  3]
NO_REP[+1765+15
    56565
    454321
    +1565
    5+1565
    454321
    +1765
    65454321
    +1765+15
    56565
    623]
RTM[x  xxxx  xxx
    x  xxxx  xxx_
    xxxx  xxx
    x  xxxx  xxx
    x  xxxx  xxx_
    xxxx  xxx
    x  xxx_  xxx_
    xxxx  xxxx  xxx_
    xxxx  x_x
    x  xxxx  xxxx
    xxxx  x_.]
SCL_DEG[1234567+1]
SCL_SEM[2 2 1 2 2 2 1]

